img/icons/general/trophy.svg

<svg xmlns="http://www.w3.org/2000/svg" viewBox="0 0 48 48"><path d="M40.75 10l1.41-8.92L24 0 5.84 1.08 7.25 10H0v1a23 23 0 0022.61 23C21.39 37.31 17.49 46 10 46v2h28v-2c-7.49 0-11.39-8.69-12.61-12A23 23 0 0048 11v-1zM24 2l15.84.94L38 14.39C36.69 22.87 31.73 32 24 32s-12.54-8.85-14-17.61L8.16 2.94zM2 12h5.57L8 14.71c1.35 8 4.36 13.05 7.77 16A21 21 0 012 12zm29.56 34H16.44c3.93-2.61 6.35-7.19 7.56-10.09 1.21 2.9 3.63 7.48 7.56 10.09zm.62-15.29c4.19-3.71 6.87-10 7.82-16l.43-2.7H46a21 21 0 01-13.82 18.7z" fill="#231f20" data-name="Layer 2"/></svg>

<svg xmlns="http://www.w3.org/2000/svg" viewBox="0 0 48 48"><defs><style>.cls-1{fill:#231f20;}</style></defs><title>Trophy</title><g id="Layer_2" data-name="Layer 2"><g id="Icons"><g id="General"><path id="Trophy" class="cls-1" d="M40.75,10l1.41-8.92L24,0,5.84,1.08,7.25,10H0v1A23,23,0,0,0,22.61,34C21.39,37.31,17.49,46,10,46v2H38V46c-7.49,0-11.39-8.69-12.61-12A23,23,0,0,0,48,11V10ZM24,2l15.84.94L38,14.39C36.69,22.87,31.73,32,24,32S11.46,23.15,10,14.39L8.16,2.94ZM2,12H7.57L8,14.71c1.35,8,4.36,13.05,7.77,16A21,21,0,0,1,2,12ZM31.56,46H16.44c3.93-2.61,6.35-7.19,7.56-10.09C25.21,38.81,27.63,43.39,31.56,46Zm.62-15.29c4.19-3.71,6.87-10,7.82-16l.43-2.7H46A21,21,0,0,1,32.18,30.71Z"/></g></g></g></svg>
